austria/municipalities/20711.svg

<svg xmlns="http://www.w3.org/2000/svg" width="850" height="850" style="shape-rendering:geometricPrecision;text-rendering:geometricPrecision;image-rendering:optimizeQuality;fill-rule:evenodd;clip-rule:evenodd"><path style="opacity:1" fill="#c8c7c7" d="M837.5 17.5v-6h-826v4c-.951-1.419-1.284-3.085-1-5h828c.302 2.56-.032 4.893-1 7z"/><path style="opacity:1" fill="#272324" d="M837.5 17.5a103840.317 103840.317 0 0 1-31.5 454c-9.65 136.46-71.817 240.96-186.5 313.5-106.32 60.179-216.986 69.512-332 28-22.673-8.502-44.006-19.335-64-32.5-.473-1.406-1.473-2.073-3-2a60.02 60.02 0 0 1-15-10c-.473-1.406-1.473-2.073-3-2a165.512 165.512 0 0 1-24-19c-.473-1.406-1.473-2.073-3-2-31.898-27.214-58.231-58.881-79-95 .215-1.679-.452-2.679-2-3-25.851-45.721-42.018-94.721-48.5-147a46084.756 46084.756 0 0 1-34.5-485v-4h826v6z"/><path style="opacity:1" fill="#908e8f" d="M30.5 29.5c262.833-1 525.833-1.333 789-1 .295 2.235-.039 4.235-1 6v-5h-788z"/><path style="opacity:1" fill="#fefefe" d="M30.5 29.5h788v5a146505.76 146505.76 0 0 1-32.5 456C772.104 608.549 715.937 700.049 617.5 765c-106.896 63.222-218.229 72.222-334 27C170.408 740.565 99.242 654.399 70 533.5a640.977 640.977 0 0 1-7-42 150540.756 150540.756 0 0 1-32.5-462z"/><path style="opacity:1" fill="#241f20" d="M363.5 742.5c-.709.904-1.709 1.237-3 1-29.727-2.891-43.894-19.224-42.5-49 1.594-13.517 6.261-25.85 14-37 0-13.338 4.333-25.005 13-35 6.216-7.023 14.049-10.69 23.5-11a97.11 97.11 0 0 1 7.5-17c4.832-4.832 10.665-7.665 17.5-8.5a193.033 193.033 0 0 1 13.5-18.5 50.882 50.882 0 0 1 15.5-11c-3.077-1.299-6.077-1.132-9 .5a917.664 917.664 0 0 1-25 26.5c-4.353 2.31-9.02 3.81-14 4.5-7.025 5.215-11.692 12.048-14 20.5-14.424 3.586-23.924 12.586-28.5 27a30.32 30.32 0 0 1-8 5c-2.668 12.665-8.001 23.998-16 34-10.605 9.097-21.272 9.097-32 0a120.57 120.57 0 0 1-6.5-13c-11.7 4.2-19.533 12.2-23.5 24-2.783 11.724-1.783 23.057 3 34a25.55 25.55 0 0 0 6.5 5.5c-15.529-2.857-25.362-12.023-29.5-27.5-3.746-20.454-.079-39.454 11-57 3.7-4.035 7.7-7.702 12-11 .462-16.8 8.962-24.966 25.5-24.5a82.111 82.111 0 0 1 12-18 145.053 145.053 0 0 1 17-.5c2.875-13.545 11.209-19.878 25-19 .973-5.147 3.973-8.647 9-10.5a446.12 446.12 0 0 1 21-2 64.799 64.799 0 0 0 9-10 40.875 40.875 0 0 1 13-7 16.242 16.242 0 0 0-8 0 224.837 224.837 0 0 0-14 10.5c-11.289-4.595-20.623-2.095-28 7.5a20.51 20.51 0 0 1-8 3c-9.684.411-19.351.411-29 0a194.498 194.498 0 0 0-19 14c-9.727 4.722-17.56 2.555-23.5-6.5a123.418 123.418 0 0 1-10.5-30c-23.872 3.392-33.705 17.059-29.5 41 .713 5.937 2.547 11.437 5.5 16.5-10.359-4.783-16.859-12.95-19.5-24.5-3.707-24.401 4.46-43.568 24.5-57.5a111.438 111.438 0 0 1 26-11c8.473-9.48 18.807-12.147 31-8a598.89 598.89 0 0 1 26 9 102.712 102.712 0 0 1 21-1 64.735 64.735 0 0 1 9 6c5.028 1.548 9.028.215 12-4a12.494 12.494 0 0 1 7 0 96.238 96.238 0 0 1 11 7c9.38 2.324 18.046.658 26-5 17.398-12.63 25.898-29.796 25.5-51.5a67.876 67.876 0 0 0 7-12l1-14c4.301-7.414 4.634-15.081 1-23-.667-7-.667-14 0-21a65.412 65.412 0 0 1 7-12c.667-4 .667-8 0-12a19.357 19.357 0 0 1-2.5-9.5 154.377 154.377 0 0 1 6-19.5 117.431 117.431 0 0 1-4-17.5c-.028-4.662 1.805-8.495 5.5-11.5a22.106 22.106 0 0 0 1.5-7.5 164.108 164.108 0 0 1-4-14.5l.5-4a81.709 81.709 0 0 1 8-13l.5-7a308.819 308.819 0 0 1-4-23l.5-6a250.262 250.262 0 0 0 4.5-7.5 72.473 72.473 0 0 1-4-17.5c.439-6.888 2.606-13.222 6.5-19l.5-5c-4.199-11.932-3.865-23.766 1-35.5-2.455-5.762-2.621-11.595-.5-17.5a102.355 102.355 0 0 1 10.5-13.5c32.044-25.125 68.377-38.792 109-41 12.133 5.768 17.967 15.268 17.5 28.5a8637.406 8637.406 0 0 0-30 126 4299.435 4299.435 0 0 1-33 99 541.663 541.663 0 0 0-14 59 1270.027 1270.027 0 0 0-12 33c-2.342 8.239-1.675 16.239 2 24a211.687 211.687 0 0 1 19 34c2.548 3.86 6.048 5.36 10.5 4.5 3.11-5.109 7.443-8.776 13-11a555.6 555.6 0 0 0 20 0 376.938 376.938 0 0 0 23-12c9.634-4.001 19.3-4.334 29-1 2 .667 4 .667 6 0a297.75 297.75 0 0 0 30-13c7.55-2.892 14.217-1.559 20 4 5.01 3.519 7.676 8.352 8 14.5 12.39 4.752 19.557 13.752 21.5 27 1.955 19.246-2.545 36.746-13.5 52.5-5.729 4.014-12.062 6.014-19 6a75.2 75.2 0 0 0 15.5-13.5c5.518-15.438 1.685-27.938-11.5-37.5-2.15-1.411-4.484-2.245-7-2.5-2.892 10.279-8.225 19.112-16 26.5-9.619 6.449-19.619 7.116-30 2-4.766-8.117-11.766-10.784-21-8a215.783 215.783 0 0 1-17 10 604.33 604.33 0 0 1-34-2c-10.047 4.372-18.714 10.705-26 19a37.885 37.885 0 0 1-10 6 204.262 204.262 0 0 1-28 5c-2.796 9.918-8.13 18.252-16 25a165.1 165.1 0 0 0-22.5 15.5l-2 4c.557 10.55-1.443 20.55-6 30a234.274 234.274 0 0 1-19 22 172.506 172.506 0 0 1-14 27L377.5 699c-4.931 3.481-9.597 3.148-14-1l-12-10c-2.201-.825-4.034-.325-5.5 1.5-9.158 18.101-6.991 34.601 6.5 49.5a36.487 36.487 0 0 0 11 3.5z"/><path style="opacity:1" fill="#c7252f" d="M555.5 73.5c12.785-.218 21.119 5.782 25 18a15.505 15.505 0 0 1-2.5 7c-25.704 19.937-54.204 34.771-85.5 44.5a110.023 110.023 0 0 1-33 2c-5.877-1.875-8.544-5.875-8-12-.233-3.459.601-6.626 2.5-9.5a76.862 76.862 0 0 1 18.5-17.5c25.75-15.859 53.416-26.692 83-32.5z"/><path style="opacity:1" fill="#e3e3e3" d="M493.5 317.5c1.844.704 2.344 2.037 1.5 4-1.223 4.115-3.223 7.782-6 11-.23-5.481 1.27-10.481 4.5-15z"/><path style="opacity:1" fill="#f0f0f0" d="M491.5 338.5h3c.037 7.577-2.963 13.577-9 18-1.106-1.784-1.106-3.618 0-5.5 1.348-4.529 3.348-8.695 6-12.5z"/><path style="opacity:1" fill="#eaeaea" d="M486.5 361.5c1.149.291 1.816 1.124 2 2.5-1.161 5.99-4.161 10.824-9 14.5.314-6.321 2.647-11.987 7-17z"/><path style="opacity:1" fill="#e6e5e5" d="M486.5 378.5c-.166 6.365-2.666 12.032-7.5 17 1.369-6.081 3.869-11.747 7.5-17z"/><path style="opacity:1" fill="#e9e9e9" d="M478.5 403.5c1.225.652 1.892 1.819 2 3.5-.735 5.713-2.735 10.879-6 15.5-.735-6.731.598-13.064 4-19z"/><path style="opacity:1" fill="#e6e6e6" d="M477.5 426.5c1.149.291 1.816 1.124 2 2.5-1.182 4.869-3.515 9.036-7 12.5-.955-5.781.711-10.781 5-15z"/><path style="opacity:1" fill="#eee" d="M475.5 446.5h3a27.32 27.32 0 0 1-2.5 13c-4.362 8.309-6.695 7.976-7-1 1.402-4.475 3.569-8.475 6.5-12z"/><path style="opacity:1" fill="#f7f7f7" d="M660.5 455.5c2.448-.49 4.115.343 5 2.5-2.154 3.488-4.988 6.321-8.5 8.5-3.732 8.927-5.399 18.26-5 28a3.647 3.647 0 0 1-1.5 1 22.226 22.226 0 0 1-2.5-6c-3.863-14.557.303-25.891 12.5-34z"/><path style="opacity:1" fill="#efeeee" d="M475.5 468.5h3v19c-1.175.219-2.175-.114-3-1a52.368 52.368 0 0 1-3-9.5 92.667 92.667 0 0 1 3-8.5z"/><path style="opacity:1" fill="#f4f4f4" d="M487.5 493.5c7.167 5.756 15.167 10.256 24 13.5a25.513 25.513 0 0 1 4 4.5l-3 1a88.79 88.79 0 0 1-19-4.5c-3.265-4.292-5.265-9.125-6-14.5z"/><path style="opacity:1" fill="#e6e6e6" d="M437.5 496.5c2.393 2.262 2.56 4.928.5 8-3.434 2.697-7.268 4.197-11.5 4.5a197.79 197.79 0 0 1 11-12.5z"/><path style="opacity:1" fill="#eee" d="M473.5 497.5c1.644-.214 3.144.12 4.5 1 3.243 9.548 1.41 17.881-5.5 25a11.38 11.38 0 0 1-2-2.5c.829-1.816 1.663-3.649 2.5-5.5.499-5.991.666-11.991.5-18z"/><path style="opacity:1" fill="#f6f5f6" d="M258.5 499.5c3.49.897 5.656 3.23 6.5 7 2.056 8.342 1.056 16.342-3 24a57.217 57.217 0 0 0-9.5 8.5c-2.815 1.721-5.815 2.388-9 2-1.035-1.507-.868-3.007.5-4.5 13.844-6.848 18.344-17.682 13.5-32.5a14.692 14.692 0 0 1 1-4.5z"/><path style="opacity:1" fill="#e9e9e9" d="M404.5 508.5c1.725.343 2.225 1.343 1.5 3-1.588 3.755-4.088 6.755-7.5 9-1.083-.865-1.249-1.865-.5-3a82.928 82.928 0 0 0 6.5-9z"/><path style="opacity:1" fill="#efefef" d="M428.5 514.5a12.93 12.93 0 0 1 5 .5l-7 7c-1.444.781-2.777.614-4-.5a30.61 30.61 0 0 1 6-7z"/><path style="opacity:1" fill="#e3e3e3" d="M387.5 526.5c10.265-.053 10.598 1.28 1 4-4.847-.483-5.18-1.816-1-4z"/><path style="opacity:1" fill="#e4e4e4" d="M426.5 528.5h3c-.845 3.853-3.179 6.519-7 8-2.385-1.313-2.552-2.98-.5-5a29.01 29.01 0 0 0 4.5-3z"/><path style="opacity:1" fill="#e5e4e4" d="M379.5 531.5c3.548-.405 6.881.095 10 1.5-2.794 1.557-5.794 1.89-9 1-.752-.671-1.086-1.504-1-2.5z"/><path style="opacity:1" fill="#f5f5f5" d="M254.5 625.5c7.321-.641 14.321.525 21 3.5 8.679 8.502 9.679 17.669 3 27.5a6.802 6.802 0 0 1-1.5-3c.072-5.26-.928-10.26-3-15-5.805-4.317-12.305-7.15-19.5-8.5-1.228-1.49-1.228-2.99 0-4.5z"/><path style="opacity:1" fill="#f4f4f4" d="M346.5 646.5c8.04-1.565 13.54 1.435 16.5 9 1.053 9.172-.113 18.005-3.5 26.5-1.608.658-2.775.158-3.5-1.5a52.2 52.2 0 0 1 .5-14c-.146-6.652-3.48-10.819-10-12.5-3.502-.694-6.836-.194-10 1.5l-2-1c3.375-3.682 7.375-6.348 12-8z"/><path style="opacity:1" fill="#898787" d="M94.5 647.5c1.548.321 2.215 1.321 2 3-.901-.79-1.568-1.79-2-3z"/><path style="opacity:1" fill="#a4a3a3" d="M363.5 742.5c1.175-.219 2.175.114 3 1-2.136 1.293-4.136 1.293-6 0 1.291.237 2.291-.096 3-1z"/><path style="opacity:1" fill="#929091" d="M175.5 745.5c1.527-.073 2.527.594 3 2-1.527.073-2.527-.594-3-2z"/><path style="opacity:1" fill="#939091" d="M202.5 766.5c1.527-.073 2.527.594 3 2-1.527.073-2.527-.594-3-2z"/><path style="opacity:1" fill="#918f90" d="M220.5 778.5c1.527-.073 2.527.594 3 2-1.527.073-2.527-.594-3-2z"/></svg>

<?xml version="1.0" encoding="UTF-8"?>
<!DOCTYPE svg PUBLIC "-//W3C//DTD SVG 1.1//EN" "http://www.w3.org/Graphics/SVG/1.1/DTD/svg11.dtd">
<svg xmlns="http://www.w3.org/2000/svg" version="1.1" width="850px" height="850px" style="shape-rendering:geometricPrecision; text-rendering:geometricPrecision; image-rendering:optimizeQuality; fill-rule:evenodd; clip-rule:evenodd" xmlns:xlink="http://www.w3.org/1999/xlink">
<g><path style="opacity:1" fill="#c8c7c7" d="M 837.5,17.5 C 837.5,15.5 837.5,13.5 837.5,11.5C 562.167,11.5 286.833,11.5 11.5,11.5C 11.5,12.8333 11.5,14.1667 11.5,15.5C 10.5489,14.0813 10.2155,12.4147 10.5,10.5C 286.5,10.5 562.5,10.5 838.5,10.5C 838.802,13.0593 838.468,15.3926 837.5,17.5 Z"/></g>
<g><path style="opacity:1" fill="#272324" d="M 837.5,17.5 C 827.332,168.851 816.832,320.184 806,471.5C 796.35,607.96 734.183,712.46 619.5,785C 513.18,845.179 402.514,854.512 287.5,813C 264.827,804.498 243.494,793.665 223.5,780.5C 223.027,779.094 222.027,778.427 220.5,778.5C 214.976,775.908 209.976,772.575 205.5,768.5C 205.027,767.094 204.027,766.427 202.5,766.5C 193.9,760.898 185.9,754.564 178.5,747.5C 178.027,746.094 177.027,745.427 175.5,745.5C 143.602,718.286 117.269,686.619 96.5,650.5C 96.7148,648.821 96.0481,647.821 94.5,647.5C 68.6487,601.779 52.4821,552.779 46,500.5C 33.6471,338.893 22.1471,177.227 11.5,15.5C 11.5,14.1667 11.5,12.8333 11.5,11.5C 286.833,11.5 562.167,11.5 837.5,11.5C 837.5,13.5 837.5,15.5 837.5,17.5 Z"/></g>
<g><path style="opacity:1" fill="#908e8f" d="M 30.5,29.5 C 293.333,28.5002 556.333,28.1669 819.5,28.5C 819.795,30.7354 819.461,32.7354 818.5,34.5C 818.5,32.8333 818.5,31.1667 818.5,29.5C 555.833,29.5 293.167,29.5 30.5,29.5 Z"/></g>
<g><path style="opacity:1" fill="#fefefe" d="M 30.5,29.5 C 293.167,29.5 555.833,29.5 818.5,29.5C 818.5,31.1667 818.5,32.8333 818.5,34.5C 807.904,186.512 797.071,338.512 786,490.5C 772.104,608.549 715.937,700.049 617.5,765C 510.604,828.222 399.271,837.222 283.5,792C 170.408,740.565 99.2416,654.399 70,533.5C 67.2016,519.578 64.8683,505.578 63,491.5C 51.9295,337.513 41.0962,183.513 30.5,29.5 Z"/></g>
<g><path style="opacity:1" fill="#241f20" d="M 363.5,742.5 C 362.791,743.404 361.791,743.737 360.5,743.5C 330.773,740.609 316.606,724.276 318,694.5C 319.594,680.983 324.261,668.65 332,657.5C 332,644.162 336.333,632.495 345,622.5C 351.216,615.477 359.049,611.81 368.5,611.5C 370.468,605.568 372.968,599.901 376,594.5C 380.832,589.668 386.665,586.835 393.5,586C 397.633,579.567 402.133,573.401 407,567.5C 411.472,562.862 416.639,559.196 422.5,556.5C 419.423,555.201 416.423,555.368 413.5,557C 405.405,565.932 397.072,574.765 388.5,583.5C 384.147,585.81 379.48,587.31 374.5,588C 367.475,593.215 362.808,600.048 360.5,608.5C 346.076,612.086 336.576,621.086 332,635.5C 329.579,637.594 326.912,639.26 324,640.5C 321.332,653.165 315.999,664.498 308,674.5C 297.395,683.597 286.728,683.597 276,674.5C 273.529,670.212 271.363,665.879 269.5,661.5C 257.8,665.7 249.967,673.7 246,685.5C 243.217,697.224 244.217,708.557 249,719.5C 250.873,721.709 253.04,723.542 255.5,725C 239.971,722.143 230.138,712.977 226,697.5C 222.254,677.046 225.921,658.046 237,640.5C 240.7,636.465 244.7,632.798 249,629.5C 249.462,612.7 257.962,604.534 274.5,605C 277.716,598.456 281.716,592.456 286.5,587C 292.157,586.501 297.824,586.334 303.5,586.5C 306.375,572.955 314.709,566.622 328.5,567.5C 329.473,562.353 332.473,558.853 337.5,557C 344.484,556.168 351.484,555.501 358.5,555C 361.813,552.017 364.813,548.683 367.5,545C 371.387,541.889 375.72,539.556 380.5,538C 377.833,537.333 375.167,537.333 372.5,538C 367.667,541.341 363,544.841 358.5,548.5C 347.211,543.905 337.877,546.405 330.5,556C 328.043,557.562 325.376,558.562 322.5,559C 312.816,559.411 303.149,559.411 293.5,559C 286.885,563.281 280.552,567.947 274.5,573C 264.773,577.722 256.94,575.555 251,566.5C 246.198,556.927 242.698,546.927 240.5,536.5C 216.628,539.892 206.795,553.559 211,577.5C 211.713,583.437 213.547,588.937 216.5,594C 206.141,589.217 199.641,581.05 197,569.5C 193.293,545.099 201.46,525.932 221.5,512C 229.715,507.225 238.382,503.558 247.5,501C 255.973,491.52 266.307,488.853 278.5,493C 287.242,495.803 295.908,498.803 304.5,502C 311.397,500.952 318.397,500.618 325.5,501C 328.672,502.752 331.672,504.752 334.5,507C 339.528,508.548 343.528,507.215 346.5,503C 348.833,502.333 351.167,502.333 353.5,503C 357.303,505.071 360.97,507.404 364.5,510C 373.88,512.324 382.546,510.658 390.5,505C 407.898,492.37 416.398,475.204 416,453.5C 418.732,449.759 421.066,445.759 423,441.5C 423.333,436.833 423.667,432.167 424,427.5C 428.301,420.086 428.634,412.419 425,404.5C 424.333,397.5 424.333,390.5 425,383.5C 426.902,379.261 429.235,375.261 432,371.5C 432.667,367.5 432.667,363.5 432,359.5C 430.35,356.55 429.517,353.383 429.5,350C 431.073,343.358 433.073,336.858 435.5,330.5C 433.721,324.773 432.388,318.94 431.5,313C 431.472,308.338 433.305,304.505 437,301.5C 437.935,299.091 438.435,296.591 438.5,294C 436.955,289.263 435.621,284.429 434.5,279.5C 434.667,278.167 434.833,276.833 435,275.5C 437.27,270.902 439.937,266.569 443,262.5C 443.167,260.167 443.333,257.833 443.5,255.5C 441.882,247.912 440.548,240.245 439.5,232.5C 439.667,230.5 439.833,228.5 440,226.5C 441.596,223.939 443.096,221.439 444.5,219C 442.438,213.318 441.105,207.485 440.5,201.5C 440.939,194.612 443.106,188.278 447,182.5C 447.167,180.833 447.333,179.167 447.5,177.5C 443.301,165.568 443.635,153.734 448.5,142C 446.045,136.238 445.879,130.405 448,124.5C 451.118,119.714 454.618,115.214 458.5,111C 490.544,85.875 526.877,72.2083 567.5,70C 579.633,75.7683 585.467,85.2683 585,98.5C 574.687,140.417 564.687,182.417 555,224.5C 544.403,257.626 533.403,290.626 522,323.5C 516.231,342.909 511.564,362.575 508,382.5C 503.846,393.45 499.846,404.45 496,415.5C 493.658,423.739 494.325,431.739 498,439.5C 505.361,450.219 511.695,461.553 517,473.5C 519.548,477.36 523.048,478.86 527.5,478C 530.61,472.891 534.943,469.224 540.5,467C 547.161,467.12 553.827,467.12 560.5,467C 568.293,463.27 575.959,459.27 583.5,455C 593.134,450.999 602.8,450.666 612.5,454C 614.5,454.667 616.5,454.667 618.5,454C 628.723,450.223 638.723,445.889 648.5,441C 656.05,438.108 662.717,439.441 668.5,445C 673.51,448.519 676.176,453.352 676.5,459.5C 688.89,464.252 696.057,473.252 698,486.5C 699.955,505.746 695.455,523.246 684.5,539C 678.771,543.014 672.438,545.014 665.5,545C 671.309,541.188 676.476,536.688 681,531.5C 686.518,516.062 682.685,503.562 669.5,494C 667.35,492.589 665.016,491.755 662.5,491.5C 659.608,501.779 654.275,510.612 646.5,518C 636.881,524.449 626.881,525.116 616.5,520C 611.734,511.883 604.734,509.216 595.5,512C 589.998,515.585 584.331,518.919 578.5,522C 567.124,521.651 555.79,520.985 544.5,520C 534.453,524.372 525.786,530.705 518.5,539C 515.498,541.503 512.165,543.503 508.5,545C 499.295,547.315 489.961,548.982 480.5,550C 477.704,559.918 472.37,568.252 464.5,575C 456.565,579.55 449.065,584.716 442,590.5C 441.333,591.833 440.667,593.167 440,594.5C 440.557,605.05 438.557,615.05 434,624.5C 428.139,632.207 421.806,639.54 415,646.5C 411.114,655.94 406.447,664.94 401,673.5C 393.167,682 385.333,690.5 377.5,699C 372.569,702.481 367.903,702.148 363.5,698C 359.5,694.667 355.5,691.333 351.5,688C 349.299,687.175 347.466,687.675 346,689.5C 336.842,707.601 339.009,724.101 352.5,739C 356.009,740.759 359.675,741.926 363.5,742.5 Z"/></g>
<g><path style="opacity:1" fill="#c7252f" d="M 555.5,73.5 C 568.285,73.2817 576.619,79.2817 580.5,91.5C 580.237,94.0278 579.404,96.3611 578,98.5C 552.296,118.437 523.796,133.271 492.5,143C 481.611,145.328 470.611,145.995 459.5,145C 453.623,143.125 450.956,139.125 451.5,133C 451.267,129.541 452.101,126.374 454,123.5C 459.207,116.625 465.374,110.792 472.5,106C 498.25,90.1415 525.916,79.3082 555.5,73.5 Z"/></g>
<g><path style="opacity:1" fill="#e3e3e3" d="M 493.5,317.5 C 495.344,318.204 495.844,319.537 495,321.5C 493.777,325.615 491.777,329.282 489,332.5C 488.77,327.019 490.27,322.019 493.5,317.5 Z"/></g>
<g><path style="opacity:1" fill="#f0f0f0" d="M 491.5,338.5 C 492.5,338.5 493.5,338.5 494.5,338.5C 494.537,346.077 491.537,352.077 485.5,356.5C 484.394,354.716 484.394,352.882 485.5,351C 486.848,346.471 488.848,342.305 491.5,338.5 Z"/></g>
<g><path style="opacity:1" fill="#eaeaea" d="M 486.5,361.5 C 487.649,361.791 488.316,362.624 488.5,364C 487.339,369.99 484.339,374.824 479.5,378.5C 479.814,372.179 482.147,366.513 486.5,361.5 Z"/></g>
<g><path style="opacity:1" fill="#e6e5e5" d="M 486.5,378.5 C 486.334,384.865 483.834,390.532 479,395.5C 480.369,389.419 482.869,383.753 486.5,378.5 Z"/></g>
<g><path style="opacity:1" fill="#e9e9e9" d="M 478.5,403.5 C 479.725,404.152 480.392,405.319 480.5,407C 479.765,412.713 477.765,417.879 474.5,422.5C 473.765,415.769 475.098,409.436 478.5,403.5 Z"/></g>
<g><path style="opacity:1" fill="#e6e6e6" d="M 477.5,426.5 C 478.649,426.791 479.316,427.624 479.5,429C 478.318,433.869 475.985,438.036 472.5,441.5C 471.545,435.719 473.211,430.719 477.5,426.5 Z"/></g>
<g><path style="opacity:1" fill="#eeeeee" d="M 475.5,446.5 C 476.5,446.5 477.5,446.5 478.5,446.5C 478.733,451.034 477.9,455.368 476,459.5C 471.638,467.809 469.305,467.476 469,458.5C 470.402,454.025 472.569,450.025 475.5,446.5 Z"/></g>
<g><path style="opacity:1" fill="#f7f7f7" d="M 660.5,455.5 C 662.948,455.01 664.615,455.843 665.5,458C 663.346,461.488 660.512,464.321 657,466.5C 653.268,475.427 651.601,484.76 652,494.5C 651.586,494.957 651.086,495.291 650.5,495.5C 649.376,493.631 648.543,491.631 648,489.5C 644.137,474.943 648.303,463.609 660.5,455.5 Z"/></g>
<g><path style="opacity:1" fill="#efeeee" d="M 475.5,468.5 C 476.5,468.5 477.5,468.5 478.5,468.5C 478.5,474.833 478.5,481.167 478.5,487.5C 477.325,487.719 476.325,487.386 475.5,486.5C 474.198,483.428 473.198,480.262 472.5,477C 473.367,474.104 474.367,471.271 475.5,468.5 Z"/></g>
<g><path style="opacity:1" fill="#f4f4f4" d="M 487.5,493.5 C 494.667,499.256 502.667,503.756 511.5,507C 513.019,508.351 514.352,509.851 515.5,511.5C 514.5,511.833 513.5,512.167 512.5,512.5C 505.961,511.689 499.628,510.189 493.5,508C 490.235,503.708 488.235,498.875 487.5,493.5 Z"/></g>
<g><path style="opacity:1" fill="#e6e6e6" d="M 437.5,496.5 C 439.893,498.762 440.06,501.428 438,504.5C 434.566,507.197 430.732,508.697 426.5,509C 430.003,504.665 433.67,500.499 437.5,496.5 Z"/></g>
<g><path style="opacity:1" fill="#eeeeee" d="M 473.5,497.5 C 475.144,497.286 476.644,497.62 478,498.5C 481.243,508.048 479.41,516.381 472.5,523.5C 471.713,522.758 471.047,521.925 470.5,521C 471.329,519.184 472.163,517.351 473,515.5C 473.499,509.509 473.666,503.509 473.5,497.5 Z"/></g>
<g><path style="opacity:1" fill="#f6f5f6" d="M 258.5,499.5 C 261.99,500.397 264.156,502.73 265,506.5C 267.056,514.842 266.056,522.842 262,530.5C 258.535,532.963 255.369,535.796 252.5,539C 249.685,540.721 246.685,541.388 243.5,541C 242.465,539.493 242.632,537.993 244,536.5C 257.844,529.652 262.344,518.818 257.5,504C 257.605,502.408 257.939,500.908 258.5,499.5 Z"/></g>
<g><path style="opacity:1" fill="#e9e9e9" d="M 404.5,508.5 C 406.225,508.843 406.725,509.843 406,511.5C 404.412,515.255 401.912,518.255 398.5,520.5C 397.417,519.635 397.251,518.635 398,517.5C 400.385,514.621 402.552,511.621 404.5,508.5 Z"/></g>
<g><path style="opacity:1" fill="#efefef" d="M 428.5,514.5 C 430.199,514.34 431.866,514.506 433.5,515C 431.167,517.333 428.833,519.667 426.5,522C 425.056,522.781 423.723,522.614 422.5,521.5C 424.178,518.827 426.178,516.494 428.5,514.5 Z"/></g>
<g><path style="opacity:1" fill="#e3e3e3" d="M 387.5,526.5 C 397.765,526.447 398.098,527.78 388.5,530.5C 383.653,530.017 383.32,528.684 387.5,526.5 Z"/></g>
<g><path style="opacity:1" fill="#e4e4e4" d="M 426.5,528.5 C 427.5,528.5 428.5,528.5 429.5,528.5C 428.655,532.353 426.321,535.019 422.5,536.5C 420.115,535.187 419.948,533.52 422,531.5C 423.652,530.601 425.152,529.601 426.5,528.5 Z"/></g>
<g><path style="opacity:1" fill="#e5e4e4" d="M 379.5,531.5 C 383.048,531.095 386.381,531.595 389.5,533C 386.706,534.557 383.706,534.89 380.5,534C 379.748,533.329 379.414,532.496 379.5,531.5 Z"/></g>
<g><path style="opacity:1" fill="#f5f5f5" d="M 254.5,625.5 C 261.821,624.859 268.821,626.025 275.5,629C 284.179,637.502 285.179,646.669 278.5,656.5C 277.749,655.624 277.249,654.624 277,653.5C 277.072,648.24 276.072,643.24 274,638.5C 268.195,634.183 261.695,631.35 254.5,630C 253.272,628.51 253.272,627.01 254.5,625.5 Z"/></g>
<g><path style="opacity:1" fill="#f4f4f4" d="M 346.5,646.5 C 354.54,644.935 360.04,647.935 363,655.5C 364.053,664.672 362.887,673.505 359.5,682C 357.892,682.658 356.725,682.158 356,680.5C 355.537,675.824 355.704,671.157 356.5,666.5C 356.354,659.848 353.02,655.681 346.5,654C 342.998,653.306 339.664,653.806 336.5,655.5C 335.833,655.167 335.167,654.833 334.5,654.5C 337.875,650.818 341.875,648.152 346.5,646.5 Z"/></g>
<g><path style="opacity:1" fill="#898787" d="M 94.5,647.5 C 96.0481,647.821 96.7148,648.821 96.5,650.5C 95.5987,649.71 94.9321,648.71 94.5,647.5 Z"/></g>
<g><path style="opacity:1" fill="#a4a3a3" d="M 363.5,742.5 C 364.675,742.281 365.675,742.614 366.5,743.5C 364.364,744.793 362.364,744.793 360.5,743.5C 361.791,743.737 362.791,743.404 363.5,742.5 Z"/></g>
<g><path style="opacity:1" fill="#929091" d="M 175.5,745.5 C 177.027,745.427 178.027,746.094 178.5,747.5C 176.973,747.573 175.973,746.906 175.5,745.5 Z"/></g>
<g><path style="opacity:1" fill="#939091" d="M 202.5,766.5 C 204.027,766.427 205.027,767.094 205.5,768.5C 203.973,768.573 202.973,767.906 202.5,766.5 Z"/></g>
<g><path style="opacity:1" fill="#918f90" d="M 220.5,778.5 C 222.027,778.427 223.027,779.094 223.5,780.5C 221.973,780.573 220.973,779.906 220.5,778.5 Z"/></g>
</svg>
